ui/public/images/televersement.svg

<svg width="284" height="124" viewBox="0 0 284 124" fill="none" xmlns="http://www.w3.org/2000/svg">
<path fill-rule="evenodd" clip-rule="evenodd" d="M81.2065 90.6133C81.4787 90.6133 81.7013 90.8261 81.7168 91.0944L81.7177 91.1245V108.522C81.7177 108.804 81.4888 109.033 81.2065 109.033C80.9343 109.033 80.7117 108.82 80.6962 108.552L80.6953 108.522V91.1245C80.6953 90.8421 80.9242 90.6133 81.2065 90.6133Z" fill="#2F4077"/>
<path fill-rule="evenodd" clip-rule="evenodd" d="M62.5312 68.4111C62.8135 68.4111 63.0423 68.64 63.0423 68.9223C63.0423 69.1945 62.8295 69.4171 62.5612 69.4326L62.5312 69.4335H35.8988C34.5747 69.4335 33.4906 70.5601 33.4627 71.9678L33.4622 72.0235V74C33.4622 74.3282 33.1573 74.5714 32.8373 74.4984C31.8863 74.2815 30.9194 74.1704 29.9521 74.1704C22.4331 74.1704 16.3036 80.6359 16.3036 88.6027C16.3036 96.5584 22.4387 103.035 29.9521 103.035C30.93 103.035 31.8797 102.925 32.8373 102.707C33.1473 102.636 33.4431 102.862 33.4613 103.175L33.4622 103.205V108.743C33.4622 109.025 33.2333 109.254 32.951 109.254C32.6787 109.254 32.4562 109.041 32.4407 108.773L32.4398 108.743V103.832L32.3371 103.85C31.6096 103.977 30.8806 104.046 30.138 104.056L29.9521 104.057C21.8614 104.057 15.2812 97.111 15.2812 88.6027C15.2812 80.0831 21.8559 73.1481 29.9521 73.1481C30.7509 73.1481 31.5488 73.2181 32.3384 73.3556L32.4398 73.374V72.0235C32.4398 70.0577 33.9486 68.4444 35.8401 68.4116L35.8988 68.4111H62.5312Z" fill="#2F4077"/>
<path fill-rule="evenodd" clip-rule="evenodd" d="M29.9529 78.6514C24.7397 78.6514 20.4961 83.1292 20.4961 88.6023C20.4961 94.0815 24.7284 98.5532 29.9529 98.5532C31.0619 98.5532 32.1298 98.3578 33.1341 97.9744C33.3322 97.8987 33.463 97.7088 33.463 97.4968V79.7078C33.463 79.4958 33.3322 79.3059 33.1341 79.2303C32.1298 78.8468 31.0619 78.6514 29.9529 78.6514ZM30.0811 79.6747C30.8917 79.6871 31.6742 79.8172 32.4193 80.0613L32.4406 80.0684V97.1361L32.4193 97.1434C31.635 97.4002 30.8093 97.5309 29.9529 97.5309C25.306 97.5309 21.5185 93.5291 21.5185 88.6023C21.5185 83.6819 25.317 79.6737 29.9529 79.6737L30.0811 79.6747Z" fill="#2F4077"/>
<path fill-rule="evenodd" clip-rule="evenodd" d="M80.0143 56.8441L62.6172 56.793C62.3448 56.7922 62.1215 57.0047 62.1055 57.2732L62.0979 61.1441L62.0705 79.619L62.0703 80.1747C62.069 83.2838 62.2265 85.1531 62.8883 87.0928C63.8624 89.9479 65.7754 91.6342 68.8173 91.7402L68.8351 91.7405H80.0128C80.2952 91.7405 80.524 91.5117 80.524 91.2293V57.3553C80.524 57.0735 80.2961 56.8449 80.0143 56.8441ZM63.1258 57.8167L79.5016 57.8647V90.7181L68.8528 90.7184C66.2731 90.6285 64.7024 89.244 63.8558 86.7626C63.2519 84.9927 63.0963 83.2304 63.0927 80.3169L63.1098 67.3645L63.1258 57.8167Z" fill="#2F4077"/>
<path fill-rule="evenodd" clip-rule="evenodd" d="M66.8089 62.6709L77.5777 62.6879C77.86 62.6884 78.0885 62.9176 78.0881 63.1999C78.0876 63.4722 77.8745 63.6943 77.6061 63.7095L77.5761 63.7103L66.8072 63.6933C66.5249 63.6928 66.2964 63.4636 66.2969 63.1813C66.2973 62.909 66.5105 62.6868 66.7788 62.6717L66.8089 62.6709Z" fill="#2F4077"/>
<path fill-rule="evenodd" clip-rule="evenodd" d="M66.7932 67.5273L77.5621 67.5444C77.8444 67.5448 78.0729 67.7741 78.0724 68.0564C78.072 68.3286 77.8588 68.5508 77.5905 68.5659L77.5604 68.5667L66.7916 68.5497C66.5093 68.5493 66.2808 68.32 66.2813 68.0377C66.2817 67.7655 66.4948 67.5433 66.7632 67.5282L66.7932 67.5273Z" fill="#2F4077"/>
<path fill-rule="evenodd" clip-rule="evenodd" d="M66.7737 72.4004L77.5596 72.4174C77.8419 72.4179 78.0704 72.6471 78.0699 72.9294C78.0695 73.2016 77.8563 73.4238 77.588 73.439L77.558 73.4398L66.7721 73.4227C66.4898 73.4223 66.2613 73.1931 66.2617 72.9108C66.2621 72.6385 66.4753 72.4163 66.7437 72.4012L66.7737 72.4004Z" fill="#2F4077"/>
<path fill-rule="evenodd" clip-rule="evenodd" d="M66.7737 77.2568L77.5425 77.2739C77.8248 77.2743 78.0533 77.5035 78.0529 77.7859C78.0525 78.0581 77.8393 78.2803 77.5709 78.2954L77.5409 78.2962L66.7721 78.2792C66.4898 78.2787 66.2613 78.0495 66.2617 77.7672C66.2622 77.495 66.4753 77.2728 66.7437 77.2577L66.7737 77.2568Z" fill="#2F4077"/>
<path fill-rule="evenodd" clip-rule="evenodd" d="M66.7581 82.1299L77.5439 82.1469C77.8263 82.1474 78.0548 82.3766 78.0543 82.6589C78.0539 82.9311 77.8407 83.1533 77.5724 83.1685L77.5423 83.1693L66.7565 83.1522C66.4741 83.1518 66.2456 82.9226 66.2461 82.6403C66.2465 82.368 66.4597 82.1458 66.728 82.1307L66.7581 82.1299Z" fill="#2F4077"/>
<path fill-rule="evenodd" clip-rule="evenodd" d="M98.0413 91.3306L68.8359 91.2284C73.6751 91.2454 77.5941 87.3264 77.6112 82.4872L78.1394 47.4374C78.1564 42.5983 82.0755 38.6963 86.9146 38.6963L86.0286 38.7304C90.8677 38.7474 94.7697 42.6664 94.7697 47.5056V49.6696L94.48 61.8697C94.48 61.8697 94.037 72.2125 104.022 69.4863C103.92 69.7589 98.0413 91.3306 98.0413 91.3306Z" fill="#E4794A"/>
<path fill-rule="evenodd" clip-rule="evenodd" d="M128.914 1.21033C122.184 2.4542 117.191 6.96961 117.174 12.354L116.816 27.8257L118.793 26.684L143.125 26.5818L143.091 12.4392C143.091 6.10061 134.844 -0.0846514 128.914 1.21033Z" fill="#E4794A"/>
<path fill-rule="evenodd" clip-rule="evenodd" d="M86.9005 38.2022C88.8052 38.2116 90.7975 38.9937 92.3118 40.3763C94.0086 41.9256 95.0004 44.1043 95.0426 46.6966L95.0538 47.4494C95.0826 49.5621 95.0835 51.324 95.064 53.7584L95.0299 57.5659L95.022 59.9224C95.0204 61.4823 95.0597 62.4136 95.2035 63.4921C95.6974 67.1973 97.2595 69.2709 100.513 69.3843C100.535 69.3851 100.557 69.3873 100.578 69.3909L100.626 69.3977C100.666 69.403 100.724 69.4096 100.798 69.4164C101.698 69.4993 102.764 69.4237 103.827 69.0695C104.094 68.9802 104.384 69.125 104.473 69.3928C104.563 69.6606 104.418 69.9501 104.15 70.0394C102.975 70.4309 101.812 70.5235 100.804 70.443L100.704 70.4344C100.629 70.4275 100.565 70.4204 100.513 70.4139L100.447 70.4049L100.376 70.402C98.3969 70.3097 96.9029 69.5488 95.8653 68.2115L95.813 68.143C94.9445 66.99 94.4367 65.4767 94.1901 63.6272L94.1692 63.4663C94.0284 62.3467 93.9947 61.3579 94.0002 59.6958L94.0032 59.0053L94.0051 57.9892C94.0072 57.5357 94.0112 57.0284 94.0184 56.2542L94.043 53.5835C94.0632 50.9629 94.0589 49.1176 94.0204 46.7131C93.9828 44.4037 93.1124 42.4917 91.6224 41.1313C90.2948 39.9191 88.5462 39.2327 86.8954 39.2245C86.6131 39.2231 86.3853 38.9931 86.3867 38.7108C86.3881 38.4285 86.6181 38.2008 86.9005 38.2022Z" fill="#2F4077"/>
<path fill-rule="evenodd" clip-rule="evenodd" d="M97.0522 42.1572L105.776 42.1913C106.059 42.1924 106.287 42.4222 106.286 42.7045C106.284 42.9767 106.071 43.1984 105.802 43.2129L105.772 43.2137L97.0482 43.1796C96.7659 43.1785 96.538 42.9487 96.5391 42.6664C96.5401 42.3942 96.7538 42.1725 97.0222 42.158L97.0522 42.1572Z" fill="#2F4077"/>
<path fill-rule="evenodd" clip-rule="evenodd" d="M97.9028 46.1104L106.985 46.1274C107.267 46.1279 107.495 46.3572 107.495 46.6395C107.494 46.9118 107.281 47.1339 107.013 47.1489L106.983 47.1497L97.9008 47.1327C97.6185 47.1322 97.3901 46.9029 97.3906 46.6206C97.3911 46.3483 97.6044 46.1262 97.8727 46.1112L97.9028 46.1104Z" fill="#2F4077"/>
<path fill-rule="evenodd" clip-rule="evenodd" d="M97.8684 50.0469L107.768 50.081C108.051 50.0819 108.279 50.3116 108.278 50.5939C108.277 50.8661 108.063 51.0879 107.795 51.1025L107.765 51.1033L97.8649 51.0692C97.5826 51.0683 97.3545 50.8386 97.3555 50.5563C97.3564 50.2841 97.57 50.0623 97.8384 50.0476L97.8684 50.0469Z" fill="#2F4077"/>
<path fill-rule="evenodd" clip-rule="evenodd" d="M97.8684 53.5566L107.564 53.5907C107.846 53.5917 108.074 53.8214 108.073 54.1037C108.072 54.3759 107.859 54.5977 107.59 54.6123L107.56 54.6131L97.8649 54.579C97.5825 54.578 97.3545 54.3483 97.3555 54.066C97.3564 53.7938 97.57 53.572 97.8384 53.5574L97.8684 53.5566Z" fill="#2F4077"/>
<path fill-rule="evenodd" clip-rule="evenodd" d="M97.8519 57.084L107.564 57.101C107.847 57.1015 108.075 57.3308 108.075 57.6131C108.074 57.8853 107.861 58.1075 107.593 58.1226L107.563 58.1234L97.8501 58.1063C97.5678 58.1058 97.3393 57.8766 97.3398 57.5943C97.3403 57.322 97.5535 57.0999 97.8219 57.0848L97.8519 57.084Z" fill="#2F4077"/>
<path fill-rule="evenodd" clip-rule="evenodd" d="M97.852 60.5938L106.661 60.6108C106.944 60.6113 107.172 60.8406 107.172 61.123C107.171 61.3952 106.958 61.6173 106.689 61.6323L106.659 61.6331L97.85 61.6161C97.5677 61.6156 97.3393 61.3863 97.3398 61.1039C97.3404 60.8317 97.5536 60.6096 97.822 60.5946L97.852 60.5938Z" fill="#2F4077"/>
<path fill-rule="evenodd" clip-rule="evenodd" d="M97.8521 64.1035L105.605 64.1206C105.887 64.1212 106.116 64.3505 106.115 64.6329C106.114 64.9051 105.901 65.1271 105.633 65.1421L105.603 65.1429L97.8499 65.1259C97.5676 65.1252 97.3392 64.8959 97.3398 64.6136C97.3404 64.3413 97.5537 64.1193 97.8221 64.1043L97.8521 64.1035Z" fill="#2F4077"/>
<path fill-rule="evenodd" clip-rule="evenodd" d="M129.614 0.647462C137.493 0.664818 143.399 5.59432 143.499 12.2038L143.5 12.4046V43.8931C143.5 44.1755 143.271 44.4043 142.989 44.4043C142.716 44.4043 142.494 44.1915 142.478 43.9232L142.477 43.8931L142.477 12.4032C142.494 6.29923 137.041 1.68618 129.612 1.66982C129.329 1.66919 129.101 1.43983 129.102 1.15751C129.102 0.875198 129.332 0.64684 129.614 0.647462Z" fill="#2F4077"/>
<path fill-rule="evenodd" clip-rule="evenodd" d="M102.966 38.0488C104.878 38.0488 106.876 38.8295 108.393 40.2168C110.089 41.7679 111.077 43.9512 111.111 46.5448C111.115 46.8271 110.889 47.0589 110.607 47.0626C110.324 47.0662 110.092 46.8404 110.089 46.5581C110.059 44.2481 109.192 42.3327 107.703 40.9713C106.398 39.7779 104.685 39.0963 103.057 39.0719L102.966 39.0712H86.8471C86.5648 39.0712 86.3359 38.8423 86.3359 38.56C86.3359 38.2878 86.5487 38.0652 86.8171 38.0497L86.8471 38.0488H102.966Z" fill="#2F4077"/>
<path fill-rule="evenodd" clip-rule="evenodd" d="M235.838 34.453L213.687 34.4189L211.336 48.8683C215.187 51.6627 218.629 54.9683 220.196 58.5636C221.577 61.6988 224.252 70.5763 227.336 81.4644L238.531 37.6394C238.94 36.0206 237.628 34.453 235.838 34.453Z" fill="#2F4077"/>
<path fill-rule="evenodd" clip-rule="evenodd" d="M174.38 95.3851C172.028 92.4032 173.068 90.3926 174.942 88.4501C169.728 86.5246 165.605 84.0199 164.582 82.1796C163.389 80.0156 165.315 77.119 166.542 75.6365C163.849 74.4438 161.413 72.4332 163.134 67.4918C163.492 66.4524 164.19 65.6856 165.127 65.1574L165.996 59.8582C165.332 60.0967 164.667 60.3523 163.986 60.6249C155.381 64.0669 151.786 55.888 157.801 52.5313C159.726 51.4578 164.139 49.4472 167.973 47.7944L168.501 44.5739L143.079 44.5399V34.3845L124.898 34.2822C123.62 34.2822 122.495 35.1001 122.206 36.2588L104.774 96.1518C104.365 97.7706 105.677 99.3211 107.467 99.3382L178.861 99.4745C177.106 98.6907 175.93 97.3616 174.38 95.3851Z" fill="#2F4077"/>
<path fill-rule="evenodd" clip-rule="evenodd" d="M214.965 26.2549L251.228 26.3231C253.863 26.3417 256.037 29.9061 255.438 32.6627L255.419 32.746L236.369 112.728C236.303 113.003 236.028 113.173 235.753 113.107C235.488 113.044 235.321 112.786 235.368 112.521L235.374 112.491L254.424 32.5087C254.94 30.3503 253.192 27.4184 251.281 27.3467L251.223 27.3454L214.963 27.2772C214.681 27.2767 214.453 27.0474 214.453 26.7651C214.454 26.4929 214.667 26.2707 214.935 26.2557L214.965 26.2549Z" fill="#2F4077"/>
<path fill-rule="evenodd" clip-rule="evenodd" d="M119.171 26.085L142.941 26.1361C143.223 26.1367 143.451 26.366 143.451 26.6484C143.45 26.9206 143.237 27.1427 142.968 27.1576L142.938 27.1584L119.17 27.1073C117.955 27.1073 116.574 28.8591 116.105 30.7067L116.088 30.7719L116.082 30.7946L93.42 108.477C93.3409 108.748 93.0571 108.903 92.7861 108.824C92.5248 108.748 92.3708 108.481 92.431 108.219L92.4386 108.19L115.098 30.5193L115.112 30.4621C115.675 28.2344 117.323 26.1284 119.115 26.0856L119.171 26.085Z" fill="#2F4077"/>
<path fill-rule="evenodd" clip-rule="evenodd" d="M200.209 121.675C200.209 121.675 48.5768 122.374 40.7388 122.357C25.2671 122.323 27.9423 107.941 27.9423 107.941L93.1004 108.044L199.221 108.027L200.209 121.675Z" fill="#2F4077"/>
<path fill-rule="evenodd" clip-rule="evenodd" d="M245.942 26.3574C248.739 26.3574 250.655 28.3351 250.086 30.9147L250.068 30.9931L233.25 100.496C233.184 100.771 232.908 100.939 232.633 100.873C232.369 100.809 232.202 100.55 232.25 100.285L232.257 100.256L249.074 30.7539C249.534 28.83 248.149 27.3798 245.942 27.3798C245.66 27.3798 245.431 27.1509 245.431 26.8686C245.431 26.5863 245.66 26.3574 245.942 26.3574Z" fill="#2F4077"/>
<path fill-rule="evenodd" clip-rule="evenodd" d="M146.86 8.60645L168.5 8.64052C168.782 8.64097 169.01 8.87019 169.01 9.15251C169.009 9.42474 168.796 9.64693 168.528 9.66206L168.498 9.66288L146.858 9.6288C146.576 9.62836 146.347 9.39913 146.348 9.11682C146.348 8.84459 146.561 8.62239 146.83 8.60727L146.86 8.60645Z" fill="#2F4077"/>
<path fill-rule="evenodd" clip-rule="evenodd" d="M148 13.8203L169.64 13.8544C169.922 13.8548 170.151 14.0841 170.151 14.3664C170.15 14.6386 169.937 14.8608 169.669 14.8759L169.639 14.8767L147.999 14.8427C147.716 14.8422 147.488 14.613 147.488 14.3307C147.489 14.0585 147.702 13.8363 147.97 13.8211L148 13.8203Z" fill="#2F4077"/>
<path fill-rule="evenodd" clip-rule="evenodd" d="M147.95 19.0176L169.573 19.0687C169.855 19.0694 170.083 19.2988 170.083 19.5811C170.082 19.8533 169.869 20.0753 169.6 20.0903L169.57 20.091L147.947 20.0399C147.665 20.0393 147.437 19.8099 147.438 19.5275C147.438 19.2553 147.651 19.0333 147.92 19.0184L147.95 19.0176Z" fill="#2F4077"/>
<path fill-rule="evenodd" clip-rule="evenodd" d="M147.934 23.6523L169.574 23.7035C169.856 23.7041 170.085 23.9335 170.084 24.2158C170.083 24.4881 169.87 24.7101 169.602 24.725L169.572 24.7258L147.932 24.6747C147.65 24.674 147.421 24.4446 147.422 24.1623C147.423 23.8901 147.636 23.6681 147.904 23.6531L147.934 23.6523Z" fill="#2F4077"/>
<path fill-rule="evenodd" clip-rule="evenodd" d="M147.934 28.2871L169.557 28.3382C169.839 28.3389 170.068 28.5683 170.067 28.8506C170.066 29.1228 169.853 29.3449 169.585 29.3598L169.555 29.3606L147.932 29.3095C147.65 29.3088 147.421 29.0794 147.422 28.7971C147.423 28.5248 147.636 28.3028 147.904 28.2879L147.934 28.2871Z" fill="#2F4077"/>
<path fill-rule="evenodd" clip-rule="evenodd" d="M147.915 32.9209L169.555 32.972C169.837 32.9727 170.065 33.2021 170.065 33.4844C170.064 33.7566 169.851 33.9787 169.582 33.9936L169.552 33.9944L147.912 33.9433C147.63 33.9426 147.402 33.7132 147.402 33.4309C147.403 33.1586 147.616 32.9366 147.885 32.9217L147.915 32.9209Z" fill="#2F4077"/>
<path fill-rule="evenodd" clip-rule="evenodd" d="M147.914 37.5732L169.537 37.6073C169.819 37.6078 170.048 37.837 170.048 38.1193C170.047 38.3915 169.834 38.6137 169.566 38.6289L169.536 38.6297L147.913 38.5956C147.63 38.5952 147.402 38.3659 147.402 38.0836C147.403 37.8114 147.616 37.5892 147.884 37.5741L147.914 37.5732Z" fill="#2F4077"/>
<path fill-rule="evenodd" clip-rule="evenodd" d="M160.269 0.647462C168.228 0.664993 174.173 5.69441 174.155 12.4059C174.155 12.6882 173.925 12.9165 173.643 12.9157C173.361 12.915 173.132 12.6855 173.133 12.4032C173.149 6.36027 167.805 1.77859 160.491 1.67168L160.268 1.66982H130.109C129.827 1.66982 129.598 1.44096 129.598 1.15864C129.598 0.886406 129.81 0.663876 130.079 0.648329L130.109 0.647461L160.269 0.647462Z" fill="#2F4077"/>
<path fill-rule="evenodd" clip-rule="evenodd" d="M282.982 121.3C283.265 121.299 283.494 121.527 283.495 121.809C283.496 122.081 283.285 122.305 283.016 122.321L282.986 122.322L1.12253 123.413C0.840217 123.414 0.610471 123.186 0.609379 122.903C0.608326 122.631 0.82027 122.408 1.08854 122.391L1.11858 122.39L282.982 121.3Z" fill="#2F4077"/>
<path d="M173.889 34.4844H217.852L229.469 72.7525L223.689 95.2945C223.069 97.7126 220.89 99.4036 218.394 99.4036H169.106L147.238 56.8075L160.222 44.507H173.889V34.4844Z" fill="#2F4077"/>
<path d="M178.448 108.06H231.067L228.334 119.904C227.927 121.261 226.688 122.197 225.273 122.218L197.355 122.638L197.81 117.854H164.781H178.448V108.06Z" fill="#2F4077"/>
<line x1="173.663" y1="12.3892" x2="173.663" y2="43.3682" stroke="#2F4077" stroke-width="0.911147" stroke-linecap="round"/>
<path d="M215.574 26.7402L173.661 26.7402" stroke="#2F4077" stroke-width="0.911147" stroke-linecap="round"/>
<path d="M232.979 99.4042L230.018 111.249M236.531 110.11L235.289 115.081C234.68 117.514 232.494 119.222 229.985 119.222L227.648 119.222" stroke="#2F4077" stroke-width="0.911147" stroke-linecap="round"/>
</svg>

<svg xmlns="http://www.w3.org/2000/svg" width="284" height="124" fill="none"><path fill="#2F4077" fill-rule="evenodd" d="M81.207 90.613c.272 0 .494.213.51.481v17.428a.511.511 0 0 1-1.02.03l-.002-.03V91.124c0-.282.23-.51.512-.51ZM62.531 68.411a.511.511 0 0 1 .03 1.022H35.9c-1.324 0-2.408 1.127-2.436 2.535V74a.511.511 0 0 1-.626.498 12.972 12.972 0 0 0-2.885-.328c-7.519 0-13.648 6.466-13.648 14.433 0 7.955 6.135 14.432 13.648 14.432.978 0 1.928-.11 2.885-.328a.51.51 0 0 1 .624.468l.001.03v5.538a.511.511 0 0 1-1.021.03l-.001-.03v-4.911l-.103.018c-.727.127-1.456.196-2.199.206l-.186.001c-8.09 0-14.67-6.946-14.67-15.454 0-8.52 6.574-15.455 14.67-15.455.799 0 1.597.07 2.386.208l.102.018v-1.35c0-1.966 1.509-3.58 3.4-3.612H62.531Z" clip-rule="evenodd"/><path fill="#2F4077" fill-rule="evenodd" d="M29.953 78.651c-5.213 0-9.457 4.478-9.457 9.951 0 5.48 4.232 9.951 9.457 9.951a8.875 8.875 0 0 0 3.181-.579.511.511 0 0 0 .329-.477v-17.79a.511.511 0 0 0-.329-.477 8.873 8.873 0 0 0-3.181-.579Zm.128 1.024c.81.012 1.593.142 2.338.386l.022.007v17.068l-.022.007a7.893 7.893 0 0 1-2.466.388c-4.647 0-8.434-4.002-8.434-8.929 0-4.92 3.798-8.928 8.434-8.928h.128ZM80.014 56.844l-17.397-.051a.511.511 0 0 0-.511.48l-.008 3.871-.027 18.475v.556c-.002 3.109.156 4.978.817 6.918.974 2.855 2.887 4.541 5.93 4.647h11.195a.511.511 0 0 0 .511-.51V57.354a.511.511 0 0 0-.51-.51Zm-16.888.973 16.376.048v32.853h-10.65c-2.579-.09-4.15-1.474-4.996-3.955-.604-1.77-.76-3.533-.763-6.446l.017-12.952.016-9.548Z" clip-rule="evenodd"/><path fill="#2F4077" fill-rule="evenodd" d="m66.809 62.67 10.769.018a.511.511 0 0 1 .028 1.021l-.03.001-10.769-.017a.511.511 0 0 1-.028-1.021l.03-.001ZM66.793 67.527l10.77.017a.511.511 0 0 1 .028 1.022h-.03l-10.77-.016a.511.511 0 0 1-.028-1.022h.03ZM66.774 72.4l10.786.017a.511.511 0 0 1 .028 1.022h-.03l-10.786-.016a.511.511 0 0 1-.028-1.022h.03ZM66.774 77.257l10.769.017a.511.511 0 0 1 .028 1.021l-.03.001-10.769-.017a.511.511 0 0 1-.028-1.021l.03-.001ZM66.758 82.13l10.786.017a.511.511 0 0 1 .028 1.021l-.03.001-10.785-.017a.511.511 0 0 1-.029-1.021l.03-.001Z" clip-rule="evenodd"/><path fill="#E4794A" fill-rule="evenodd" d="m98.041 91.33-29.205-.102c4.84.017 8.758-3.902 8.775-8.74l.528-35.05a8.766 8.766 0 0 1 8.776-8.742l-.886.034a8.766 8.766 0 0 1 8.74 8.776v2.164l-.289 12.2s-.443 10.343 9.542 7.616c-.102.273-5.98 21.845-5.98 21.845ZM128.914 1.21c-6.73 1.244-11.723 5.76-11.74 11.144l-.358 15.472 1.977-1.142 24.332-.102-.034-14.143c0-6.338-8.247-12.524-14.177-11.229Z" clip-rule="evenodd"/><path fill="#2F4077" fill-rule="evenodd" d="M86.9 38.202c1.905.01 3.897.792 5.412 2.174 1.697 1.55 2.688 3.728 2.73 6.32l.012.753c.029 2.113.03 3.875.01 6.31l-.034 3.807-.008 2.356c-.002 1.56.038 2.492.181 3.57.494 3.705 2.056 5.779 5.31 5.892.022.001.044.003.065.007l.048.007a7.511 7.511 0 0 0 3.201-.328.51.51 0 0 1 .323.97 8.504 8.504 0 0 1-3.346.403l-.1-.009a5.933 5.933 0 0 1-.191-.02l-.066-.01-.071-.002c-1.98-.092-3.473-.853-4.51-2.19l-.053-.069c-.868-1.153-1.376-2.666-1.623-4.516l-.02-.16c-.142-1.12-.175-2.11-.17-3.771l.003-.69.002-1.017c.002-.453.006-.96.013-1.735l.025-2.67c.02-2.621.016-4.466-.023-6.87-.037-2.31-.908-4.222-2.398-5.583-1.327-1.212-3.076-1.898-4.727-1.907a.511.511 0 1 1 .005-1.022ZM97.052 42.157l8.724.034a.512.512 0 0 1 .026 1.022h-.03l-8.724-.033a.511.511 0 0 1-.026-1.022h.03ZM97.903 46.11l9.082.017a.511.511 0 0 1 .028 1.022h-.03l-9.082-.016a.511.511 0 0 1-.028-1.022h.03Z" clip-rule="evenodd"/><path fill="#2F4077" fill-rule="evenodd" d="m97.868 50.047 9.9.034a.511.511 0 0 1 .027 1.021l-.03.001-9.9-.034a.511.511 0 0 1-.027-1.021l.03-.001ZM97.868 53.557l9.696.034a.511.511 0 0 1 .026 1.021l-.03.001-9.695-.034a.511.511 0 0 1-.027-1.022h.03ZM97.852 57.084l9.712.017a.512.512 0 0 1 .029 1.022h-.03l-9.713-.017a.511.511 0 0 1-.028-1.021l.03-.001ZM97.852 60.594l8.809.017a.512.512 0 0 1 .028 1.021l-.03.001-8.809-.017a.511.511 0 0 1-.028-1.021l.03-.001ZM97.852 64.103l7.753.018a.511.511 0 0 1 .028 1.021h-.03l-7.753-.016a.511.511 0 0 1-.028-1.022h.03ZM129.614.647c7.879.018 13.785 4.947 13.885 11.557l.001.2v31.49a.511.511 0 0 1-1.022.03l-.001-.03v-31.49c.017-6.105-5.436-10.718-12.865-10.734a.51.51 0 1 1 .002-1.023ZM102.966 38.049c1.912 0 3.91.78 5.427 2.168 1.696 1.55 2.684 3.734 2.718 6.328a.51.51 0 1 1-1.022.013c-.03-2.31-.897-4.225-2.386-5.587-1.305-1.193-3.018-1.875-4.646-1.9h-16.21a.511.511 0 0 1-.03-1.021l.03-.001h16.119ZM235.838 34.453l-22.151-.034-2.351 14.45c3.851 2.794 7.293 6.1 8.86 9.695 1.381 3.135 4.056 12.012 7.14 22.9l11.195-43.825c.409-1.618-.903-3.186-2.693-3.186Z" clip-rule="evenodd"/><path fill="#2F4077" fill-rule="evenodd" d="M174.38 95.385c-2.352-2.982-1.312-4.992.562-6.935-5.214-1.925-9.337-4.43-10.36-6.27-1.193-2.164.733-5.061 1.96-6.544-2.693-1.192-5.129-3.203-3.408-8.144.358-1.04 1.056-1.806 1.993-2.335l.869-5.299c-.664.239-1.329.494-2.01.767-8.605 3.442-12.2-4.737-6.185-8.094 1.925-1.073 6.338-3.084 10.172-4.737l.528-3.22-25.422-.034V34.385l-18.181-.103c-1.278 0-2.403.818-2.692 1.977l-17.432 59.893c-.409 1.619.903 3.17 2.693 3.186l71.394.137c-1.755-.784-2.931-2.113-4.481-4.09ZM214.965 26.255l36.263.068c2.635.019 4.809 3.583 4.21 6.34l-.019.083-19.05 79.982a.511.511 0 0 1-1.001-.207l.006-.03 19.05-79.982c.516-2.159-1.232-5.09-3.143-5.162l-.058-.002-36.26-.068a.511.511 0 0 1-.028-1.021l.03-.001Z" clip-rule="evenodd"/><path fill="#2F4077" fill-rule="evenodd" d="m119.171 26.085 23.77.051a.512.512 0 0 1 .027 1.022h-.03l-23.768-.05c-1.215 0-2.596 1.751-3.065 3.599l-.017.065-.006.023-22.662 77.682a.511.511 0 0 1-.989-.258l.008-.029 22.659-77.67.014-.058c.563-2.228 2.211-4.334 4.003-4.376l.056-.001Z" clip-rule="evenodd"/><path fill="#2F4077" fill-rule="evenodd" d="M200.209 121.675s-151.632.699-159.47.682c-15.472-.034-12.797-14.416-12.797-14.416l65.158.103 106.121-.017.988 13.648ZM245.942 26.357c2.797 0 4.713 1.978 4.144 4.558l-.018.078-16.818 69.503a.51.51 0 0 1-1-.211l.007-.029 16.817-69.502c.46-1.924-.925-3.374-3.132-3.374a.511.511 0 0 1 0-1.023ZM146.86 8.606l21.64.035a.511.511 0 0 1 .028 1.021h-.03l-21.64-.033a.51.51 0 0 1-.028-1.022h.03ZM148 13.82l21.64.034a.512.512 0 0 1 .029 1.022h-.03l-21.64-.033a.512.512 0 0 1-.029-1.022h.03ZM147.95 19.018l21.623.05a.512.512 0 0 1 .027 1.022l-.03.001-21.623-.051a.51.51 0 0 1-.027-1.022h.03ZM147.934 23.652l21.64.051a.511.511 0 0 1 .028 1.022h-.03l-21.64-.05a.511.511 0 0 1-.028-1.022h.03ZM147.934 28.287l21.623.051a.511.511 0 0 1 .028 1.022h-.03l-21.623-.05a.511.511 0 0 1-.028-1.022h.03ZM147.915 32.92l21.64.052a.512.512 0 0 1 .027 1.022h-.03l-21.64-.05a.512.512 0 0 1-.027-1.022l.03-.001ZM147.914 37.573l21.623.034a.512.512 0 0 1 .029 1.022h-.03l-21.623-.033a.512.512 0 0 1-.029-1.022h.03Z" clip-rule="evenodd"/><path fill="#2F4077" fill-rule="evenodd" d="M160.269.647c7.959.018 13.904 5.047 13.886 11.759a.51.51 0 1 1-1.022-.003c.016-6.043-5.328-10.624-12.642-10.731l-.223-.002h-30.159a.511.511 0 0 1-.03-1.022h30.19ZM282.982 121.3a.51.51 0 0 1 .034 1.021l-.03.001-281.863 1.091a.511.511 0 0 1-.034-1.022l.03-.001 281.863-1.09Z" clip-rule="evenodd"/><path fill="#2F4077" d="M173.889 34.484h43.963l11.617 38.268-5.78 22.543a5.466 5.466 0 0 1-5.295 4.109h-49.288l-21.868-42.596 12.984-12.301h13.667V34.484ZM178.448 108.06h52.619l-2.733 11.844a3.246 3.246 0 0 1-3.061 2.314l-27.918.42.455-4.784h-33.029 13.667v-9.794Z"/><path stroke="#2F4077" stroke-linecap="round" stroke-width=".911" d="M173.663 12.389v30.979M215.574 26.74h-41.913M232.979 99.404l-2.961 11.845m6.513-1.139-1.242 4.971a5.468 5.468 0 0 1-5.304 4.141h-2.337"/></svg>
